X:0562
T:Let me alone
T:An English Ballad
M:C|
L:1/8
Q:1/4=96 "Andante"
I: :: ::
Z:Jack Campin * www.campin.me.uk * 2009
K:A
E|A2ce    ({A}G2)FE | F2  dB   {A}G2 zA|B2 GB  e2BA|{A}G2 ({B}A)({G}F) E3::
e|ecA>=G { GF}F2 d>e|(f<d)B>A ({A}G3) E|A>cB>d cafd|   c2 ({e}d)({c}B) A3:|

